static/assets/img/icons/theme/general/attachment-2.svg

<svg height="24" viewBox="0 0 24 24" width="24" xmlns="http://www.w3.org/2000/svg"><g fill="none" fill-rule="evenodd"><path d="m0 0h24v24h-24z" opacity="0"/><g fill="#000"><path d="m11.7573593 15.2426407h-2.99999999c-.55228475 0-1 .4477152-1 1 0 .5522847.44771525 1 1 1h2.99999999v1c0 1.1045695-.8954305 2-1.99999999 2h-4c-1.1045695 0-2-.8954305-2-2v-4c0-1.1045695.8954305-2 2-2h4c1.10456949 0 1.99999999.8954305 1.99999999 2z" opacity=".3" transform="matrix(.70710678 -.70710678 .70710678 .70710678 -9.213204 10.242641)"/><path d="m12.2426407 8.75735931h3c.5522847 0 1-.44771525 1-1s-.4477153-1-1-1h-3v-1c0-1.1045695.8954305-2 2-2h4c1.1045695 0 2 .8954305 2 2v4c0 1.10456949-.8954305 1.99999999-2 1.99999999h-4c-1.1045695 0-2-.8954305-2-1.99999999z" transform="matrix(.70710678 -.70710678 .70710678 .70710678 -.727922 13.757359)"/><path d="m5.89339828 3.42893219c.55228475 0 1 .44771525 1 1v2c0 .55228475-.44771525 1-1 1s-1-.44771525-1-1v-2c0-.55228475.44771525-1 1-1zm5.53553392 1.70710678c.3905243.39052429.3905243 1.02368927 0 1.41421356l-1.4142136 1.41421356c-.39052427.3905243-1.02368924.3905243-1.41421354 0-.39052429-.39052429-.39052429-1.02368927 0-1.41421356l1.41421354-1.41421356c.3905243-.39052429 1.0236893-.39052429 1.4142136 0zm-10.82842714 0c.3905243-.39052429 1.02368927-.39052429 1.41421357 0l1.41421356 1.41421356c.39052429.39052429.39052429 1.02368927 0 1.41421356-.39052429.3905243-1.02368927.3905243-1.41421356 0l-1.41421357-1.41421356c-.39052429-.39052429-.39052429-1.02368927 0-1.41421356z" opacity=".3" transform="matrix(.70710678 -.70710678 .70710678 .70710678 -2.370058 5.964466)"/><path d="m17.9142136 15.4497475c.5522847 0 1 .4477152 1 1v2c0 .5522847-.4477153 1-1 1-.5522848 0-1-.4477153-1-1v-2c0-.5522848.4477152-1 1-1zm5.5355339 1.7071067c.3905243.3905243.3905243 1.0236893 0 1.4142136l-1.4142136 1.4142136c-.3905243.3905243-1.0236893.3905243-1.4142136 0-.3905242-.3905243-.3905242-1.0236893 0-1.4142136l1.4142136-1.4142136c.3905243-.3905242 1.0236893-.3905242 1.4142136 0zm-10.8284272 0c.3905243-.3905242 1.0236893-.3905242 1.4142136 0l1.4142136 1.4142136c.3905243.3905243.3905243 1.0236893 0 1.4142136s-1.0236893.3905243-1.4142136 0l-1.4142136-1.4142136c-.3905242-.3905243-.3905242-1.0236893 0-1.4142136z" opacity=".3" transform="matrix(.70710678 -.70710678 -.70710678 -.70710678 17.914214 43.248737)"/></g></g></svg>

<svg width="24px" height="24px" viewBox="0 0 24 24" version="1.1" xmlns="http://www.w3.org/2000/svg" xmlns:xlink="http://www.w3.org/1999/xlink">
    <title>Icon For Attachment#2</title>
    <g stroke="none" stroke-width="1" fill="none" fill-rule="evenodd">
        <rect opacity="0" x="0" y="0" width="24" height="24"></rect>
        <path d="M11.7573593,15.2426407 L8.75735931,15.2426407 C8.20507456,15.2426407 7.75735931,15.6903559 7.75735931,16.2426407 C7.75735931,16.7949254 8.20507456,17.2426407 8.75735931,17.2426407 L11.7573593,17.2426407 L11.7573593,18.2426407 C11.7573593,19.3472102 10.8619288,20.2426407 9.75735931,20.2426407 L5.75735931,20.2426407 C4.65278981,20.2426407 3.75735931,19.3472102 3.75735931,18.2426407 L3.75735931,14.2426407 C3.75735931,13.1380712 4.65278981,12.2426407 5.75735931,12.2426407 L9.75735931,12.2426407 C10.8619288,12.2426407 11.7573593,13.1380712 11.7573593,14.2426407 L11.7573593,15.2426407 Z" fill="#000000" opacity="0.3" transform="translate(7.757359, 16.242641) rotate(-45.000000) translate(-7.757359, -16.242641) "></path>
        <path d="M12.2426407,8.75735931 L15.2426407,8.75735931 C15.7949254,8.75735931 16.2426407,8.30964406 16.2426407,7.75735931 C16.2426407,7.20507456 15.7949254,6.75735931 15.2426407,6.75735931 L12.2426407,6.75735931 L12.2426407,5.75735931 C12.2426407,4.65278981 13.1380712,3.75735931 14.2426407,3.75735931 L18.2426407,3.75735931 C19.3472102,3.75735931 20.2426407,4.65278981 20.2426407,5.75735931 L20.2426407,9.75735931 C20.2426407,10.8619288 19.3472102,11.7573593 18.2426407,11.7573593 L14.2426407,11.7573593 C13.1380712,11.7573593 12.2426407,10.8619288 12.2426407,9.75735931 L12.2426407,8.75735931 Z" fill="#000000" transform="translate(16.242641, 7.757359) rotate(-45.000000) translate(-16.242641, -7.757359) "></path>
        <path d="M5.89339828,3.42893219 C6.44568303,3.42893219 6.89339828,3.87664744 6.89339828,4.42893219 L6.89339828,6.42893219 C6.89339828,6.98121694 6.44568303,7.42893219 5.89339828,7.42893219 C5.34111353,7.42893219 4.89339828,6.98121694 4.89339828,6.42893219 L4.89339828,4.42893219 C4.89339828,3.87664744 5.34111353,3.42893219 5.89339828,3.42893219 Z M11.4289322,5.13603897 C11.8194565,5.52656326 11.8194565,6.15972824 11.4289322,6.55025253 L10.0147186,7.96446609 C9.62419433,8.35499039 8.99102936,8.35499039 8.60050506,7.96446609 C8.20998077,7.5739418 8.20998077,6.94077682 8.60050506,6.55025253 L10.0147186,5.13603897 C10.4052429,4.74551468 11.0384079,4.74551468 11.4289322,5.13603897 Z M0.600505063,5.13603897 C0.991029355,4.74551468 1.62419433,4.74551468 2.01471863,5.13603897 L3.42893219,6.55025253 C3.81945648,6.94077682 3.81945648,7.5739418 3.42893219,7.96446609 C3.0384079,8.35499039 2.40524292,8.35499039 2.01471863,7.96446609 L0.600505063,6.55025253 C0.209980772,6.15972824 0.209980772,5.52656326 0.600505063,5.13603897 Z" fill="#000000" opacity="0.3" transform="translate(6.014719, 5.843146) rotate(-45.000000) translate(-6.014719, -5.843146) "></path>
        <path d="M17.9142136,15.4497475 C18.4664983,15.4497475 18.9142136,15.8974627 18.9142136,16.4497475 L18.9142136,18.4497475 C18.9142136,19.0020322 18.4664983,19.4497475 17.9142136,19.4497475 C17.3619288,19.4497475 16.9142136,19.0020322 16.9142136,18.4497475 L16.9142136,16.4497475 C16.9142136,15.8974627 17.3619288,15.4497475 17.9142136,15.4497475 Z M23.4497475,17.1568542 C23.8402718,17.5473785 23.8402718,18.1805435 23.4497475,18.5710678 L22.0355339,19.9852814 C21.6450096,20.3758057 21.0118446,20.3758057 20.6213203,19.9852814 C20.2307961,19.5947571 20.2307961,18.9615921 20.6213203,18.5710678 L22.0355339,17.1568542 C22.4260582,16.76633 23.0592232,16.76633 23.4497475,17.1568542 Z M12.6213203,17.1568542 C13.0118446,16.76633 13.6450096,16.76633 14.0355339,17.1568542 L15.4497475,18.5710678 C15.8402718,18.9615921 15.8402718,19.5947571 15.4497475,19.9852814 C15.0592232,20.3758057 14.4260582,20.3758057 14.0355339,19.9852814 L12.6213203,18.5710678 C12.2307961,18.1805435 12.2307961,17.5473785 12.6213203,17.1568542 Z" fill="#000000" opacity="0.3" transform="translate(18.035534, 17.863961) scale(1, -1) rotate(45.000000) translate(-18.035534, -17.863961) "></path>
    </g>
</svg>
